; generated by Slic3r 1.2.9 on 2015-12-09 at 00:10:42

; external perimeters extrusion width = 0.38mm
; perimeters extrusion width = 0.45mm
; infill extrusion width = 0.60mm
; solid infill extrusion width = 0.60mm
; top infill extrusion width = 0.30mm
; support material extrusion width = 0.80mm

M107
M104 S245 ; set temperature
G28 ; home all axes
; M203 X192 Y208 Z3 ; Speed limits to minimize skipped steps when moving really fast courtesy of forum.lulzbot.com user 1013
M109 S245 ; wait for temperature to be reached
G21 ; set units to millimeters
G90 ; use absolute coordinates
M82 ; use absolute distances for extrusion
G92 E0
G1 E-0.40000 F18000.00000
G92 E0
G1 Z0.300 F12000.000
G1 X25.776 Y79.321 F12000.000
G1 Z0.270 F12000.000
G1 E0.40000 F18000.00000
M204 S1200
G1 X26.380 Y79.146 E0.41144 F5026.998
G1 X27.577 Y78.871 E0.43380
G1 X28.780 Y78.681 E0.45596
G1 X66.814 Y74.279 E1.15261
G1 X67.409 Y74.227 E1.16349
G1 X68.400 Y74.177 E1.18153
G1 X224.642 Y74.182 E4.02439
G1 X225.237 Y74.198 E4.03522 F5026.998
G1 X225.895 Y74.254 E4.04723
G1 X264.208 Y78.679 E4.74898
G1 X265.412 Y78.868 E4.77116
G1 X266.608 Y79.143 E4.79348
G1 X267.212 Y79.318 E4.80493
G1 X268.370 Y79.725 E4.82726
G1 X268.951 Y79.967 E4.83871
G1 X270.055 Y80.502 E4.86103
G1 X270.604 Y80.808 E4.87247
G1 X271.642 Y81.464 E4.89481
G1 X272.153 Y81.830 E4.90625
G1 X273.109 Y82.598 E4.92856
G1 X273.578 Y83.020 E4.94003
G1 X274.441 Y83.891 E4.96235
G1 X274.858 Y84.361 E4.97379
G1 X275.619 Y85.325 E4.99613
G1 X275.980 Y85.840 E5.00757
G1 X276.627 Y86.882 E5.02990
G1 X276.929 Y87.435 E5.04134
G1 X277.454 Y88.543 E5.06366
G1 X277.691 Y89.126 E5.07511
G1 X278.100 Y90.328 E5.09821
G1 X278.259 Y90.893 E5.10889
G1 X278.523 Y92.090 E5.13119
G1 X278.624 Y92.712 E5.14267
G1 X278.752 Y93.932 E5.16498
G1 X278.782 Y94.560 E5.17642
G1 X278.771 Y95.788 E5.19877
G1 X278.731 Y96.416 E5.21021
G1 X278.582 Y97.633 E5.23253
G1 X278.471 Y98.253 E5.24398
G1 X278.352 Y98.825 E5.25461
G1 X263.935 Y160.016 E6.39849
G1 X262.879 Y162.764 E6.45206
G1 X261.124 Y165.128 E6.50562
G1 X259.275 Y166.645 E6.54915
G1 X254.694 Y169.623 E6.64855
G1 X249.768 Y172.635 E6.75362
G1 X244.757 Y175.505 E6.85869
G1 X242.989 Y176.474 E6.89538
G1 X239.988 Y178.066 E6.95719
G1 X236.960 Y179.606 E7.01899
G1 X234.072 Y181.017 E7.07747
G1 X232.150 Y181.925 E7.11615
G1 X228.656 Y183.512 E7.18598
G1 X225.276 Y184.972 E7.25297
G1 X222.053 Y186.297 E7.31637
G1 X218.624 Y187.636 E7.38336
G1 X215.170 Y188.913 E7.45035
G1 X211.694 Y190.127 E7.51735
G1 X208.196 Y191.277 E7.58435
G1 X204.678 Y192.363 E7.65134
G1 X201.141 Y193.385 E7.71834
G1 X197.585 Y194.343 E7.78534
G1 X194.013 Y195.235 E7.85233
G1 X190.425 Y196.063 E7.91933
G1 X186.823 Y196.824 E7.98632
G1 X183.012 Y197.556 E8.05692
G1 X179.383 Y198.182 E8.12392
G1 X175.744 Y198.743 E8.19092
G1 X172.095 Y199.237 E8.25791
G1 X168.438 Y199.664 E8.32491
G1 X164.774 Y200.025 E8.39191
G1 X161.104 Y200.319 E8.45890
G1 X157.429 Y200.545 E8.52590
G1 X153.750 Y200.705 E8.59289
G1 X150.069 Y200.798 E8.65989
G1 X146.387 Y200.824 E8.72689
G1 X142.705 Y200.783 E8.79388
G1 X139.223 Y200.682 E8.85727
G1 X135.780 Y200.522 E8.91999
G1 X131.870 Y200.272 E8.99126
G1 X128.201 Y199.966 E9.05826
G1 X124.538 Y199.594 E9.12525
G1 X120.882 Y199.155 E9.19225
G1 X117.235 Y198.649 E9.25925
G1 X113.598 Y198.078 E9.32624
G1 X109.971 Y197.439 E9.39324
G1 X106.163 Y196.696 E9.46384
G1 X102.563 Y195.923 E9.53083
G1 X98.978 Y195.084 E9.59783
G1 X95.600 Y194.230 E9.66122
G1 X92.047 Y193.265 E9.72822
G1 X88.512 Y192.235 E9.79521
G1 X84.996 Y191.141 E9.86221
G1 X81.501 Y189.983 E9.92920
G1 X78.027 Y188.762 E9.99620
G1 X74.391 Y187.406 E10.06680
G1 X70.966 Y186.056 E10.13380
G1 X67.565 Y184.643 E10.20080
G1 X64.191 Y183.169 E10.26779
G1 X61.024 Y181.717 E10.33118
G1 X58.573 Y180.548 E10.38060
G1 X55.539 Y179.045 E10.44221
G1 X52.563 Y177.506 E10.50317
G1 X49.211 Y175.700 E10.57244
G1 X47.065 Y174.499 E10.61720
G1 X42.774 Y171.994 E10.70759
G1 X38.307 Y169.233 E10.80314
G1 X33.914 Y166.357 E10.89868
G1 X31.693 Y164.425 E10.95225
G1 X30.071 Y161.968 E11.00581
G1 X29.299 Y159.798 E11.04773
G1 X14.661 Y98.873 E12.18781
G1 X14.423 Y97.658 E12.21034
G1 X14.272 Y96.439 E12.23270
G1 X14.230 Y95.811 E12.24414
G1 X14.217 Y94.583 E12.26648
G1 X14.246 Y93.955 E12.27793
G1 X14.372 Y92.733 E12.30028
G1 X14.472 Y92.112 E12.31172
G1 X14.735 Y90.912 E12.33408
G1 X14.904 Y90.306 E12.34552
G1 X15.300 Y89.143 E12.36787
G1 X15.536 Y88.561 E12.37931
G1 X16.061 Y87.450 E12.40167
G1 X16.361 Y86.897 E12.41311
G1 X17.008 Y85.853 E12.43546
G1 X17.368 Y85.338 E12.44690
G1 X18.129 Y84.373 E12.46925
G1 X18.545 Y83.902 E12.48069
G1 X19.409 Y83.028 E12.50305
G1 X19.876 Y82.607 E12.51449
G1 X20.833 Y81.837 E12.53684
G1 X21.345 Y81.471 E12.54828
G1 X22.382 Y80.814 E12.57063
G1 X22.932 Y80.508 E12.58208
G1 X24.037 Y79.971 E12.60443
G1 X24.617 Y79.729 E12.61587
G1 X25.726 Y79.338 E12.63727
G1 X25.899 Y79.746 F12000.000
G1 X26.503 Y79.570 E12.64871 F5026.998
G1 X27.652 Y79.306 E12.67016
G1 X28.831 Y79.120 E12.69188
G1 X66.865 Y74.718 E13.38853
G1 X67.436 Y74.668 E13.39897
G1 X68.408 Y74.619 E13.41667
G1 X224.642 Y74.624 E16.25938
G1 X225.213 Y74.640 E16.26978 F5026.998
G1 X225.844 Y74.693 E16.28130
G1 X264.157 Y79.118 E16.98305
G1 X265.338 Y79.304 E17.00479
G1 X266.485 Y79.567 E17.02621
G1 X267.089 Y79.742 E17.03766
G1 X268.200 Y80.133 E17.05908
G1 X268.781 Y80.375 E17.07053
G1 X269.840 Y80.889 E17.09194
G1 X270.390 Y81.194 E17.10339
G1 X271.385 Y81.824 E17.12481
G1 X271.896 Y82.189 E17.13626
G1 X272.813 Y82.926 E17.15766
G1 X273.282 Y83.348 E17.16913
G1 X274.110 Y84.184 E17.19054
G1 X274.527 Y84.655 E17.20199
G1 X275.257 Y85.579 E17.22342
G1 X275.619 Y86.094 E17.23486
G1 X276.239 Y87.094 E17.25628
G1 X276.540 Y87.646 E17.26772
G1 X277.045 Y88.709 E17.28913
G1 X277.282 Y89.292 E17.30058
G1 X277.675 Y90.447 E17.32277
G1 X277.833 Y91.012 E17.33345
G1 X278.087 Y92.160 E17.35485
G1 X278.188 Y92.783 E17.36633
G1 X278.310 Y93.953 E17.38773
G1 X278.340 Y94.581 E17.39918
G1 X278.330 Y95.759 E17.42061
G1 X278.289 Y96.387 E17.43206
G1 X278.147 Y97.555 E17.45347
G1 X278.036 Y98.174 E17.46492
G1 X277.922 Y98.723 E17.47512
G1 X263.505 Y159.915 E18.61900
G1 X262.463 Y162.603 E18.67146
G1 X260.725 Y164.904 E18.72392
G1 X259.034 Y166.274 E18.76353
G1 X254.453 Y169.253 E18.86293
G1 X249.538 Y172.258 E18.96777
G1 X244.538 Y175.122 E19.07261
G1 X242.781 Y176.084 E19.10905
G1 X239.787 Y177.672 E19.17072
G1 X236.766 Y179.209 E19.23239
G1 X233.878 Y180.620 E19.29087
G1 X231.961 Y181.525 E19.32944
G1 X228.480 Y183.106 E19.39900
G1 X225.108 Y184.563 E19.46586
G1 X221.885 Y185.888 E19.52925
G1 X218.463 Y187.224 E19.59609
G1 X215.017 Y188.498 E19.66294
G1 X211.548 Y189.709 E19.72979
G1 X208.058 Y190.857 E19.79664
G1 X204.548 Y191.941 E19.86349
G1 X201.018 Y192.961 E19.93034
G1 X197.470 Y193.916 E19.99719
G1 X193.906 Y194.806 E20.06404
G1 X190.326 Y195.632 E20.13089
G1 X186.731 Y196.392 E20.19774
G1 X183.124 Y197.086 E20.26459
G1 X179.504 Y197.715 E20.33144
G1 X175.873 Y198.277 E20.39829
G1 X172.233 Y198.774 E20.46514
G1 X168.584 Y199.204 E20.53199
G1 X164.928 Y199.567 E20.59883
G1 X161.266 Y199.864 E20.66568
G1 X157.599 Y200.094 E20.73253
G1 X153.739 Y200.264 E20.80284
G1 X150.066 Y200.356 E20.86969
G1 X146.392 Y200.382 E20.93654
G1 X142.718 Y200.341 E21.00339
G1 X139.236 Y200.240 E21.06678
G1 X135.801 Y200.080 E21.12935
G1 X131.899 Y199.831 E21.20048
G1 X128.238 Y199.526 E21.26733
G1 X124.583 Y199.154 E21.33418
G1 X120.935 Y198.716 E21.40103
G1 X117.296 Y198.212 E21.46788
G1 X113.666 Y197.641 E21.53473
G1 X110.048 Y197.004 E21.60158
G1 X106.255 Y196.263 E21.67189
G1 X102.664 Y195.492 E21.73873
G1 X99.086 Y194.655 E21.80559
G1 X95.708 Y193.802 E21.86897
G1 X92.163 Y192.838 E21.93582
G1 X88.635 Y191.811 E22.00267
G1 X85.127 Y190.719 E22.06952
G1 X81.640 Y189.564 E22.13637
G1 X78.174 Y188.345 E22.20322
G1 X74.553 Y186.995 E22.27353
G1 X71.135 Y185.648 E22.34038
G1 X67.742 Y184.238 E22.40723
G1 X64.376 Y182.767 E22.47408
G1 X61.208 Y181.316 E22.53747
G1 X58.769 Y180.152 E22.58664
G1 X55.735 Y178.649 E22.64825
G1 X52.766 Y177.113 E22.70907
G1 X49.421 Y175.311 E22.77820
G1 X47.287 Y174.117 E22.82269
G1 X42.997 Y171.613 E22.91309
G1 X38.540 Y168.858 E23.00842
G1 X34.156 Y165.988 E23.10376
G1 X31.987 Y164.089 E23.15622
G1 X30.419 Y161.669 E23.20868
G1 X29.729 Y159.695 E23.24674
G1 X15.091 Y98.770 E24.38682
G1 X14.858 Y97.579 E24.40891
G1 X14.713 Y96.409 E24.43035
G1 X14.671 Y95.782 E24.44179
G1 X14.659 Y94.604 E24.46323
G1 X14.688 Y93.975 E24.47468
G1 X14.809 Y92.803 E24.49612
G1 X14.908 Y92.182 E24.50756
G1 X15.160 Y91.030 E24.52901
G1 X15.329 Y90.425 E24.54046
G1 X15.709 Y89.309 E24.56190
G1 X15.946 Y88.727 E24.57333
G1 X16.449 Y87.661 E24.59478
G1 X16.749 Y87.108 E24.60622
G1 X17.370 Y86.106 E24.62767
G1 X17.731 Y85.591 E24.63911
G1 X18.460 Y84.665 E24.66055
G1 X18.876 Y84.194 E24.67199
G1 X19.705 Y83.357 E24.69344
G1 X20.172 Y82.935 E24.70488
G1 X21.090 Y82.196 E24.72633
G1 X21.602 Y81.831 E24.73777
G1 X22.597 Y81.200 E24.75921
G1 X23.147 Y80.894 E24.77065
G1 X24.207 Y80.379 E24.79210
G1 X24.787 Y80.137 E24.80354
G1 X25.849 Y79.763 E24.82403
G1 F9600
G1 X26.054 Y79.703 E24.44403
G1 E24.42403 F18000.00000
G92 E0
G1 Z0.570 F12000.000
G1 X81.845 Y143.048 F12000.000
G1 Z0.270 F12000.000
G1 E0.40000 F18000.00000
G1 X52.535 Y164.800 E1.06412 F1755.000
G1 X48.390 Y162.380 E1.15146
G1 X44.171 Y159.768 E1.24174
G1 X40.102 Y157.100 E1.33028
G1 X25.489 Y96.279 E2.46843
G1 X25.381 Y95.682 E2.47947
G1 X25.342 Y95.041 E2.49116
G1 X25.368 Y94.482 E2.50133
G1 X25.463 Y93.889 E2.51225
G1 X25.624 Y93.311 E2.52318
G1 X25.850 Y92.755 E2.53410
G1 X26.137 Y92.227 E2.54503
G1 X26.481 Y91.735 E2.55595
G1 X26.879 Y91.285 E2.56688
G1 X27.324 Y90.884 E2.57779
G1 X27.849 Y90.514 E2.58948
G1 X28.337 Y90.242 E2.59965
G1 X28.891 Y90.010 E2.61057
G1 X29.468 Y89.843 E2.62150
G1 X30.060 Y89.742 E2.63242
G1 X30.666 Y89.708 E2.64347
G1 X62.345 Y89.709 E3.21987
G1 X62.345 Y114.709 E3.67476
G1 X64.443 Y114.709 E3.71293
G1 X64.445 Y89.467 E4.17222
G1 X64.476 Y88.958 E4.18149
G1 X64.566 Y88.466 E4.19060
G1 X64.714 Y87.991 E4.19965
G1 X64.921 Y87.530 E4.20884
G1 X65.180 Y87.102 E4.21795
G1 X65.488 Y86.709 E4.22703
G1 X65.844 Y86.353 E4.23619
G1 X66.238 Y86.044 E4.24530
G1 X66.665 Y85.786 E4.25438
G1 X67.124 Y85.579 E4.26354
G1 X67.602 Y85.430 E4.27265
G1 X68.092 Y85.340 E4.28172
G1 X68.596 Y85.310 E4.29091
G1 X69.095 Y85.340 E4.29999
G1 X69.585 Y85.430 E4.30907
G1 X70.066 Y85.579 E4.31823
G1 X70.525 Y85.786 E4.32739
G1 X70.952 Y86.044 E4.33647
G1 X71.346 Y86.353 E4.34558
G1 X71.702 Y86.709 E4.35474
G1 X72.010 Y87.102 E4.36382
G1 X72.269 Y87.530 E4.37293
G1 X72.476 Y87.991 E4.38212
G1 X72.624 Y88.466 E4.39117
G1 X72.714 Y88.959 E4.40030
G1 X72.750 Y89.468 E4.40958
G1 X72.750 Y114.709 E4.86885
G1 X74.845 Y114.709 E4.90696
G1 X74.845 Y89.709 E5.36184
G1 X218.345 Y89.706 E7.97285
G1 X218.345 Y114.709 E8.42780
G1 X220.287 Y114.709 E8.46314
G1 X220.287 Y90.060 E8.91164
G1 X220.246 Y89.512 E8.92163
G1 X220.272 Y88.989 E8.93117
G1 X220.364 Y88.475 E8.94067
G1 X220.520 Y87.976 E8.95018
G1 X220.737 Y87.500 E8.95971
G1 X221.014 Y87.053 E8.96927
G1 X221.343 Y86.648 E8.97875
G1 X221.722 Y86.285 E8.98831
G1 X222.143 Y85.974 E8.99784
G1 X222.598 Y85.719 E9.00732
G1 X223.079 Y85.524 E9.01677
G1 X223.590 Y85.389 E9.02639
G1 X224.106 Y85.320 E9.03587
G1 X224.632 Y85.317 E9.04543
G1 X225.149 Y85.379 E9.05491
G1 X225.657 Y85.506 E9.06444
G1 X226.144 Y85.696 E9.07395
G1 X226.602 Y85.945 E9.08342
G1 X227.030 Y86.254 E9.09304
G1 X227.411 Y86.610 E9.10252
G1 X227.745 Y87.011 E9.11202
G1 X228.027 Y87.453 E9.12156
G1 X228.250 Y87.924 E9.13103
G1 X228.414 Y88.426 E9.14065
G1 X228.511 Y88.936 E9.15010
G1 X228.561 Y89.727 E9.16452
G1 X228.561 Y114.709 E9.61907
G1 X230.727 Y114.709 E9.65847
G1 X230.727 Y89.706 E10.11342
G1 X262.324 Y89.706 E10.68834
G1 X262.931 Y89.740 E10.69940
G1 X263.523 Y89.841 E10.71033
G1 X264.100 Y90.008 E10.72126
G1 X264.655 Y90.239 E10.73220
G1 X265.179 Y90.531 E10.74311
G1 X265.700 Y90.908 E10.75481
G1 X266.115 Y91.283 E10.76498
G1 X266.513 Y91.732 E10.77592
G1 X266.859 Y92.224 E10.78685
G1 X267.146 Y92.752 E10.79778
G1 X267.372 Y93.307 E10.80869
G1 X267.541 Y93.928 E10.82039
G1 X267.631 Y94.480 E10.83057
G1 X267.660 Y95.080 E10.84150
G1 X267.621 Y95.679 E10.85243
G1 X267.513 Y96.278 E10.86350
G1 X253.121 Y157.365 E12.00543
G1 X248.628 Y160.287 E12.10295
G1 X243.970 Y163.130 E12.20222
G1 X239.383 Y165.753 E12.29837
G1 X211.839 Y142.330 E12.95624
G1 X210.542 Y143.936 E12.99381
G1 X237.443 Y166.813 E13.63634
G1 X234.932 Y168.146 E13.68808
G1 X232.265 Y169.504 E13.74254
G1 X229.333 Y170.940 E13.80194
G1 X205.118 Y150.348 E14.38031
G1 X203.626 Y152.102 E14.42220
G1 X227.044 Y172.016 E14.98152
G1 X224.017 Y173.387 E15.04197
G1 X221.040 Y174.675 E15.10100
G1 X217.822 Y175.998 E15.16430
G1 X214.580 Y177.262 E15.22761
G1 X211.317 Y178.467 E15.29091
G1 X207.808 Y179.686 E15.35850
G1 X204.725 Y180.698 E15.41753
G1 X201.401 Y181.722 E15.48083
G1 X198.058 Y182.687 E15.54414
G1 X194.698 Y183.590 E15.60744
G1 X191.322 Y184.431 E15.67075
G1 X187.931 Y185.211 E15.73405
G1 X184.527 Y185.929 E15.79736
G1 X181.110 Y186.585 E15.86066
G1 X177.682 Y187.179 E15.92397
G1 X174.243 Y187.710 E15.98728
G1 X170.796 Y188.179 E16.05058
G1 X167.340 Y188.584 E16.11389
G1 X163.878 Y188.927 E16.17719
G1 X160.410 Y189.206 E16.24050
G1 X156.937 Y189.422 E16.30380
G1 X153.461 Y189.575 E16.36711
G1 X149.983 Y189.665 E16.43041
G1 X146.504 Y189.691 E16.49372
G1 X143.025 Y189.653 E16.55703
G1 X139.547 Y189.553 E16.62033
G1 X136.072 Y189.389 E16.68364
G1 X132.600 Y189.162 E16.74694
G1 X129.133 Y188.871 E16.81025
G1 X125.672 Y188.518 E16.87355
G1 X122.217 Y188.101 E16.93686
G1 X118.771 Y187.622 E17.00016
G1 X115.335 Y187.080 E17.06347
G1 X112.140 Y186.516 E17.12250
G1 X108.493 Y185.808 E17.19008
G1 X105.092 Y185.079 E17.25339
G1 X101.703 Y184.288 E17.31669
G1 X98.330 Y183.436 E17.38000
G1 X94.973 Y182.522 E17.44330
G1 X91.633 Y181.548 E17.50661
G1 X88.312 Y180.512 E17.56991
G1 X85.009 Y179.416 E17.63322
G1 X81.728 Y178.261 E17.69653
G1 X78.468 Y177.045 E17.75983
G1 X75.230 Y175.771 E17.82314
G1 X72.016 Y174.438 E17.88644
G1 X68.828 Y173.046 E17.94975
G1 X66.041 Y171.769 E18.00552
G1 X89.843 Y153.585 E18.55053
G1 X88.292 Y151.493 E18.59791
G1 X63.378 Y170.503 E19.16813
G1 X60.485 Y169.070 E19.22687
G1 X57.685 Y167.620 E19.28425
G1 X54.851 Y166.092 E19.34282
G1 X83.284 Y144.989 E19.98709
G1 X81.877 Y143.090 E20.03008
G1 X81.637 Y142.767 F12000.000
G1 X81.937 Y142.430 F12000.000
G1 X66.114 Y154.173 E20.38862 F5026.998
G1 X65.953 Y153.984 E20.39313
G1 X66.552 Y153.354 E20.40894
G1 X67.145 Y152.653 E20.42566
G1 X67.145 Y143.260 E20.59657
G1 X66.551 Y142.553 E20.61337
G1 X65.849 Y141.812 E20.63194
G1 X65.095 Y141.124 E20.65051
G1 X64.556 Y140.690 E20.66310
G1 X63.729 Y140.100 E20.68159
G1 X63.146 Y139.735 E20.69410
G1 X62.550 Y139.401 E20.70654
G1 X61.938 Y139.096 E20.71897
G1 X61.313 Y138.821 E20.73140
G1 X60.671 Y138.575 E20.74391
G1 X59.723 Y138.274 E20.76200
G1 X59.031 Y138.100 E20.77499
G1 X58.032 Y137.912 E20.79349
G1 X57.350 Y137.826 E20.80600
G1 X56.664 Y137.772 E20.81851
G1 X55.670 Y137.754 E20.83660
G1 X54.961 Y137.784 E20.84951
G1 X54.280 Y137.846 E20.86195
G1 X53.599 Y137.941 E20.87446
G1 X52.603 Y138.142 E20.89296
G1 X51.935 Y138.320 E20.90554
G1 X50.991 Y138.632 E20.92363
G1 X50.331 Y138.894 E20.93654
G1 X49.709 Y139.178 E20.94898
G1 X49.102 Y139.491 E20.96141
G1 X48.507 Y139.835 E20.97392
G1 X47.659 Y140.396 E20.99242
G1 X47.109 Y140.809 E21.00493
G1 X46.583 Y141.245 E21.01736
G1 X46.079 Y141.706 E21.02980
G1 X45.595 Y142.194 E21.04231
G1 X44.764 Y143.138 E21.06517
G1 X44.764 Y152.818 E21.24131
G1 X45.375 Y153.518 E21.25821
G1 X46.070 Y154.226 E21.27626
G1 X46.595 Y154.701 E21.28915
G1 X47.127 Y155.135 E21.30164
G1 X47.930 Y155.718 E21.31969
G1 X48.531 Y156.101 E21.33266
G1 X49.418 Y156.593 E21.35112
G1 X50.037 Y156.890 E21.36361
G1 X50.669 Y157.156 E21.37609
G1 X51.626 Y157.494 E21.39456
G1 X52.290 Y157.684 E21.40712
G1 X53.284 Y157.906 E21.42565
G1 X54.292 Y158.056 E21.44419
G1 X54.975 Y158.117 E21.45667
