; generated by Slic3r 1.2.9 on 2015-12-09 at 13:54:50

; external perimeters extrusion width = 0.38mm
; perimeters extrusion width = 0.45mm
; infill extrusion width = 0.60mm
; solid infill extrusion width = 0.60mm
; top infill extrusion width = 0.30mm
; support material extrusion width = 0.80mm

M107
M104 S245 ; set temperature
G28 ; home all axes
; M203 X192 Y208 Z3 ; Speed limits to minimize skipped steps when moving really fast courtesy of forum.lulzbot.com user 1013
M109 S245 ; wait for temperature to be reached
G21 ; set units to millimeters
G90 ; use absolute coordinates
M82 ; use absolute distances for extrusion
G92 E0
G1 E-0.40000 F18000.00000
G92 E0
G1 Z0.300 F12000.000
G1 X60.050 Y89.332 F12000.000
G1 Z0.270 F12000.000
G1 E0.40000 F18000.00000
M204 S1200
G1 X61.109 Y88.680 E0.42262 F5026.998
G1 X61.880 Y88.274 E0.43848
G1 X63.017 Y87.773 E0.46109
G1 X63.884 Y87.466 E0.47783
G1 X65.034 Y87.138 E0.49957
G1 X66.252 Y86.900 E0.52217
G1 X67.164 Y86.785 E0.53890
G1 X68.407 Y86.718 E0.56154
G1 X224.574 Y86.721 E3.40303
G1 X225.689 Y86.772 E3.42334 F5026.998
G1 X226.507 Y86.866 E3.43832
G1 X227.364 Y87.006 E3.45412
G1 X228.312 Y87.230 E3.47184
G1 X229.008 Y87.427 E3.48500
G1 X229.755 Y87.690 E3.49942
G1 X230.547 Y88.008 E3.51495
G1 X231.334 Y88.382 E3.53080
G1 X232.056 Y88.775 E3.54575
G1 X232.475 Y89.023 E3.55461
G1 X233.156 Y89.479 E3.56953
G1 X233.822 Y89.967 E3.58456
G1 X234.197 Y90.269 E3.59331
G1 X234.678 Y90.695 E3.60500
G1 X235.404 Y91.393 E3.62333
G1 X235.987 Y92.039 E3.63916
G1 X236.510 Y92.677 E3.65417
G1 X236.812 Y93.082 E3.66337
G1 X237.174 Y93.617 E3.67512
G1 X237.505 Y94.139 E3.68636
G1 X237.922 Y94.877 E3.70178
G1 X238.302 Y95.661 E3.71764
G1 X238.609 Y96.369 E3.73167
G1 X238.862 Y97.069 E3.74521
G1 X239.146 Y97.981 E3.76261
G1 X239.278 Y98.505 E3.77244
G1 X239.444 Y99.330 E3.78775
G1 X239.512 Y99.721 E3.79496
G1 X239.620 Y100.672 E3.81237
G1 X239.669 Y101.401 E3.82568
G1 X239.683 Y102.153 E3.83937
G1 X238.682 Y173.191 E5.13204
G1 X238.632 Y174.188 E5.15021
G1 X238.567 Y174.890 E5.16303
G1 X238.374 Y176.034 E5.18413
G1 X238.165 Y176.946 E5.20117
G1 X237.891 Y177.843 E5.21823
G1 X237.639 Y178.554 E5.23196
G1 X237.102 Y179.765 E5.25606
G1 X236.927 Y180.115 E5.26317
G1 X236.555 Y180.771 E5.27690
G1 X236.248 Y181.270 E5.28755
G1 X235.838 Y181.881 E5.30095
G1 X235.009 Y182.938 E5.32540
G1 X234.281 Y183.726 E5.34491
G1 X233.560 Y184.418 E5.36309
G1 X233.252 Y184.684 E5.37050
G1 X232.486 Y185.283 E5.38820
G1 X231.897 Y185.705 E5.40137
G1 X230.812 Y186.363 E5.42447
G1 X230.426 Y186.573 E5.43247
G1 X229.720 Y186.910 E5.44670
G1 X228.537 Y187.395 E5.46996
G1 X227.273 Y187.782 E5.49401
G1 X226.897 Y187.878 E5.50107
G1 X226.153 Y188.028 E5.51489
G1 X225.210 Y188.176 E5.53225
G1 X224.837 Y188.216 E5.53908
G1 X223.486 Y188.282 E5.56369
G1 X69.265 Y188.280 E8.36977
G1 X68.232 Y188.223 E8.38859
G1 X67.213 Y188.096 E8.40727
G1 X66.104 Y187.872 E8.42787
G1 X65.512 Y187.727 E8.43896
G1 X64.763 Y187.492 E8.45324
G1 X63.507 Y187.017 E8.47768
G1 X62.327 Y186.436 E8.50160
G1 X61.615 Y186.032 E8.51650
G1 X60.687 Y185.408 E8.53684
G1 X60.197 Y185.049 E8.54789
G1 X59.585 Y184.538 E8.56240
G1 X58.899 Y183.910 E8.57933
G1 X58.602 Y183.614 E8.58695
G1 X57.713 Y182.600 E8.61148
G1 X57.241 Y181.991 E8.62552
G1 X56.623 Y181.062 E8.64582
G1 X56.286 Y180.506 E8.65764
G1 X55.938 Y179.838 E8.67135
G1 X55.398 Y178.648 E8.69513
G1 X55.154 Y177.970 E8.70824
G1 X54.838 Y176.957 E8.72755
G1 X54.657 Y176.192 E8.74186
G1 X54.427 Y174.837 E8.76685
G1 X54.360 Y174.074 E8.78080
G1 X54.318 Y173.129 E8.79801
G1 X53.317 Y102.153 E10.08955
G1 X53.332 Y101.385 E10.10353
G1 X53.377 Y100.707 E10.11589
G1 X53.492 Y99.697 E10.13439
G1 X53.605 Y99.067 E10.14604
G1 X53.738 Y98.434 E10.15780
G1 X53.952 Y97.653 E10.17255
G1 X54.221 Y96.819 E10.18849
G1 X54.521 Y96.059 E10.20335
G1 X54.876 Y95.276 E10.21901
G1 X55.280 Y94.508 E10.23479
G1 X55.697 Y93.814 E10.24952
G1 X56.154 Y93.130 E10.26448
G1 X56.699 Y92.417 E10.28081
G1 X57.231 Y91.786 E10.29583
G1 X57.927 Y91.065 E10.31407
G1 X58.421 Y90.599 E10.32641
G1 X59.309 Y89.870 E10.34732
G1 X60.007 Y89.362 E10.36304
G1 X60.295 Y89.699 F12000.000
G1 X61.327 Y89.064 E10.38508 F5026.998
G1 X62.071 Y88.673 E10.40037
G1 X63.179 Y88.184 E10.42240
G1 X64.017 Y87.888 E10.43857
G1 X65.135 Y87.568 E10.45974
G1 X66.323 Y87.336 E10.48176
G1 X67.204 Y87.225 E10.49791
G1 X68.415 Y87.160 E10.51998
G1 X224.574 Y87.163 E13.36133
G1 X225.649 Y87.212 E13.38092 F5026.998
G1 X226.452 Y87.304 E13.39561
G1 X227.277 Y87.440 E13.41084
G1 X228.204 Y87.659 E13.42817
G1 X228.875 Y87.849 E13.44086
G1 X229.595 Y88.102 E13.45473
G1 X230.371 Y88.413 E13.46995
G1 X231.129 Y88.774 E13.48522
G1 X231.837 Y89.159 E13.49988
G1 X232.242 Y89.399 E13.50846
G1 X232.898 Y89.837 E13.52281
G1 X233.551 Y90.316 E13.53755
G1 X233.913 Y90.608 E13.54601
G1 X234.377 Y91.018 E13.55727
G1 X235.086 Y91.700 E13.57517
G1 X235.648 Y92.323 E13.59043
G1 X236.161 Y92.948 E13.60514
G1 X236.453 Y93.340 E13.61404
G1 X236.802 Y93.855 E13.62535
G1 X237.128 Y94.371 E13.63646
G1 X237.530 Y95.082 E13.65132
G1 X237.903 Y95.850 E13.66686
G1 X238.197 Y96.531 E13.68036
G1 X238.441 Y97.206 E13.69342
G1 X238.719 Y98.098 E13.71042
G1 X238.847 Y98.605 E13.71993
G1 X239.010 Y99.413 E13.73493
G1 X239.075 Y99.790 E13.74189
G1 X239.179 Y100.702 E13.75860
G1 X239.227 Y101.424 E13.77177
G1 X239.241 Y102.147 E13.78492
G1 X238.241 Y173.174 E15.07740
G1 X238.167 Y174.473 E15.10108
G1 X238.032 Y175.457 E15.11914
G1 X237.914 Y176.087 E15.13080
G1 X237.741 Y176.820 E15.14451
G1 X237.355 Y178.051 E15.16797
G1 X237.075 Y178.761 E15.18187
G1 X236.791 Y179.387 E15.19438
G1 X236.355 Y180.240 E15.21181
G1 X235.656 Y181.371 E15.23600
G1 X235.249 Y181.932 E15.24860
G1 X234.700 Y182.619 E15.26461
G1 X234.430 Y182.931 E15.27212
G1 X233.971 Y183.410 E15.28419
G1 X233.552 Y183.821 E15.29488
G1 X232.977 Y184.338 E15.30893
G1 X232.217 Y184.932 E15.32649
G1 X231.652 Y185.337 E15.33914
G1 X230.592 Y185.979 E15.36168
G1 X230.221 Y186.181 E15.36937
G1 X229.544 Y186.505 E15.38303
G1 X228.389 Y186.978 E15.40573
G1 X227.156 Y187.356 E15.42920
G1 X226.795 Y187.448 E15.43598
G1 X226.080 Y187.592 E15.44925
G1 X224.797 Y187.776 E15.47284
G1 X223.479 Y187.840 E15.49684
G1 X69.273 Y187.838 E18.30265
G1 X68.272 Y187.783 E18.32089
G1 X67.284 Y187.660 E18.33901
G1 X66.197 Y187.440 E18.35919
G1 X65.629 Y187.301 E18.36984
G1 X64.910 Y187.075 E18.38355
G1 X63.683 Y186.612 E18.40741
G1 X62.531 Y186.044 E18.43078
G1 X61.848 Y185.656 E18.44508
G1 X60.939 Y185.045 E18.46501
G1 X60.468 Y184.700 E18.47562
G1 X59.881 Y184.209 E18.48955
G1 X58.921 Y183.307 E18.51351
G1 X58.053 Y182.317 E18.53747
G1 X57.599 Y181.732 E18.55094
G1 X56.994 Y180.822 E18.57083
G1 X56.671 Y180.288 E18.58218
G1 X56.336 Y179.647 E18.59534
G1 X55.809 Y178.485 E18.61857
G1 X55.574 Y177.834 E18.63115
G1 X55.264 Y176.840 E18.65010
G1 X55.091 Y176.106 E18.66383
G1 X54.866 Y174.784 E18.68823
G1 X54.802 Y174.051 E18.70161
G1 X54.760 Y173.121 E18.71854
G1 X53.759 Y102.147 E20.01006
G1 X53.784 Y101.238 E20.02661
G1 X53.818 Y100.737 E20.03574
G1 X53.929 Y99.768 E20.05349
G1 X54.078 Y98.944 E20.06873
G1 X54.274 Y98.127 E20.08402
G1 X54.503 Y97.370 E20.09840
G1 X54.783 Y96.581 E20.11363
G1 X55.251 Y95.517 E20.13478
G1 X55.641 Y94.768 E20.15015
G1 X56.073 Y94.046 E20.16546
G1 X56.512 Y93.389 E20.17985
G1 X57.047 Y92.690 E20.19586
G1 X57.559 Y92.081 E20.21034
G1 X58.240 Y91.378 E20.22814
G1 X58.716 Y90.928 E20.24006
G1 X59.582 Y90.218 E20.26043
G1 X60.252 Y89.729 E20.27553
G1 F9600
G1 X60.434 Y89.617 E19.89553
G1 E19.87553 F18000.00000
G92 E0
G1 Z0.570 F12000.000
G1 X220.229 Y173.714 F12000.000
G1 Z0.270 F12000.000
G1 E0.40000 F18000.00000
G1 X220.152 Y173.140 E0.41053 F1560.000
G1 X220.176 Y172.586 E0.42062
G1 X220.231 Y172.279 E0.42630
G1 X220.340 Y171.903 E0.43343
G1 X220.506 Y171.521 E0.44101
G1 X220.648 Y171.270 E0.44625
G1 X220.980 Y170.829 E0.45629
G1 X221.260 Y170.554 E0.46344
G1 X221.500 Y170.363 E0.46902
G1 X221.737 Y170.207 E0.47417
G1 X222.105 Y170.019 E0.48171
G1 X222.371 Y169.917 E0.48689
G1 X222.753 Y169.815 E0.49407
G1 X223.330 Y169.750 E0.50464 F1560.000
G1 X223.910 Y169.790 E0.51521
G1 X224.295 Y169.875 E0.52240
G1 X224.565 Y169.966 E0.52758
G1 X224.941 Y170.138 E0.53511
G1 X225.189 Y170.286 E0.54035
G1 X225.623 Y170.628 E0.55040
G1 X225.908 Y170.933 E0.55800
G1 X226.078 Y171.158 E0.56314
G1 X226.228 Y171.397 E0.56827
G1 X226.411 Y171.775 E0.57590
G1 X226.574 Y172.301 E0.58593
G1 X226.624 Y172.586 E0.59120
G1 X226.651 Y173.003 E0.59880
G1 X226.598 Y173.579 E0.60932
G1 X226.505 Y173.962 E0.61650
G1 X226.408 Y174.233 E0.62173
G1 X226.156 Y174.724 E0.63178
G1 X225.911 Y175.063 E0.63938
G1 X225.721 Y175.275 E0.64457
G1 X225.413 Y175.552 E0.65210
G1 X225.179 Y175.720 E0.65734
G1 X224.695 Y175.982 E0.66736
G1 X224.300 Y176.123 E0.67499
G1 X224.020 Y176.191 E0.68022
G1 X223.469 Y176.250 E0.69031
G1 X222.890 Y176.210 E0.70087
G1 X222.505 Y176.125 E0.70805
G1 X222.232 Y176.033 E0.71328
G1 X221.737 Y175.793 E0.72330
G1 X221.391 Y175.555 E0.73093
G1 X221.173 Y175.368 E0.73617
G1 X220.806 Y174.959 E0.74616
G1 X220.631 Y174.701 E0.75183
G1 X220.447 Y174.358 E0.75892
G1 X220.340 Y174.095 E0.76409
G1 X220.244 Y173.764 E0.77035
G1 X219.899 Y173.597 F12000.000
G1 X219.357 Y173.897 F12000.000
G1 X219.294 Y173.598 E0.77591 F1560.000
G1 X219.251 Y173.036 E0.78616
G1 X219.280 Y172.503 E0.79588
G1 X219.377 Y171.986 E0.80544
G1 X219.551 Y171.451 E0.81568
G1 X219.781 Y170.969 E0.82540
G1 X220.068 Y170.529 E0.83496
G1 X220.432 Y170.100 E0.84520
G1 X220.830 Y169.743 E0.85492
G1 X221.262 Y169.444 E0.86448
G1 X221.763 Y169.187 E0.87472
G1 X222.266 Y169.008 E0.88445
G1 X222.780 Y168.898 E0.89400
G1 X223.351 Y168.851 E0.90444
G1 X223.661 Y168.858 E0.91008
G1 X224.078 Y168.906 E0.91771 F1560.000
G1 X224.745 Y169.076 E0.93024
G1 X225.370 Y169.349 E0.94265
G1 X225.851 Y169.653 E0.95299
G1 X226.155 Y169.896 E0.96008
G1 X226.436 Y170.172 E0.96724
G1 X226.715 Y170.504 E0.97514
G1 X227.016 Y170.966 E0.98517
G1 X227.277 Y171.522 E0.99634
G1 X227.415 Y171.953 E1.00457
G1 X227.504 Y172.385 E1.01261
G1 X227.549 Y173.001 E1.02385
G1 X227.516 Y173.521 E1.03332
G1 X227.426 Y174.006 E1.04230
G1 X227.274 Y174.486 E1.05146
G1 X227.061 Y174.952 E1.06079
G1 X226.805 Y175.371 E1.06973
G1 X226.472 Y175.789 E1.07944
G1 X226.120 Y176.134 E1.08842
G1 X225.720 Y176.440 E1.09757
G1 X225.278 Y176.700 E1.10690
G1 X224.826 Y176.897 E1.11588
G1 X224.316 Y177.047 E1.12555
G1 X223.829 Y177.127 E1.13453
G1 X223.326 Y177.149 E1.14368
G1 X222.797 Y177.105 E1.15336
G1 X222.322 Y177.007 E1.16217
G1 X221.836 Y176.844 E1.17150
G1 X221.382 Y176.626 E1.18065
G1 X220.968 Y176.361 E1.18961
G1 X220.483 Y175.951 E1.20116
G1 X220.128 Y175.552 E1.21087
G1 X219.833 Y175.118 E1.22042
G1 X219.578 Y174.616 E1.23067
G1 X219.402 Y174.112 E1.24039
G1 X219.368 Y173.948 E1.24343
G1 X219.585 Y173.693 F12000.000
G1 X219.793 Y173.805 F12000.000
G1 X219.706 Y173.141 E1.26941 F1170.000
G1 X219.732 Y172.522 E1.29344 F1170.000
G1 X219.814 Y172.098 E1.31018
G1 X219.971 Y171.619 E1.32971
G1 X220.112 Y171.311 E1.34286
G1 X220.268 Y171.038 E1.35503
G1 X220.433 Y170.801 E1.36624
G1 X220.757 Y170.416 E1.38576
G1 X220.974 Y170.212 E1.39728
G1 X221.247 Y169.996 E1.41081
G1 X221.501 Y169.826 E1.42264
G1 X221.941 Y169.600 E1.44183
G1 X222.390 Y169.444 E1.46026
G1 X222.654 Y169.380 E1.47077
G1 X223.300 Y169.303 E1.49601
G1 X223.991 Y169.348 E1.52285
G1 X224.599 Y169.503 E1.54719
G1 X225.159 Y169.746 E1.57088
G1 X225.453 Y169.928 E1.58425
G1 X225.854 Y170.235 E1.60387
G1 X226.258 Y170.654 E1.62642
G1 X226.623 Y171.185 E1.65141
G1 X226.856 Y171.687 E1.67288
G1 X226.976 Y172.067 E1.68834
G1 X227.057 Y172.447 E1.70340
G1 X227.100 Y173.004 E1.72503
G1 X227.065 Y173.464 E1.74295
G1 X226.986 Y173.896 E1.75997
G1 X226.812 Y174.424 E1.78151
G1 X226.659 Y174.739 E1.79507
G1 X226.434 Y175.111 E1.81197
G1 X226.251 Y175.352 E1.82369
G1 X226.028 Y175.599 E1.83660
G1 X225.823 Y175.792 E1.84751
G1 X225.468 Y176.066 E1.86490
G1 X224.861 Y176.396 E1.89168
G1 X224.439 Y176.546 E1.90905
G1 X224.111 Y176.628 E1.92216
G1 X223.458 Y176.697 E1.94762
G1 X222.810 Y176.651 E1.97283
G1 X222.440 Y176.572 E1.98749
G1 X222.077 Y176.453 E2.00230
G1 X221.498 Y176.170 E2.02729
G1 X221.236 Y175.997 E2.03945
G1 X220.872 Y175.696 E2.05777
G1 X220.463 Y175.248 E2.08131
G1 X220.221 Y174.889 E2.09808
G1 X220.038 Y174.537 E2.11344
G1 X219.915 Y174.230 E2.12628
G1 X219.805 Y173.856 E2.14139
G1 F9600
G1 X219.776 Y173.645 E1.76139
G1 E1.74139 F18000.00000
G92 E0
G1 Z0.570 F12000.000
G1 X224.413 Y105.252 F12000.000
G1 Z0.270 F12000.000
G1 E0.40000 F18000.00000
G1 X223.634 Y105.156 E0.41428 F1560.000
G1 X223.462 Y105.107 E0.41753
G1 X222.766 Y104.812 E0.43129
G1 X222.096 Y104.295 E0.44669
G1 X221.582 Y103.623 E0.46208
G1 X221.287 Y102.924 E0.47589
G1 X221.242 Y102.751 E0.47913
G1 X221.148 Y102.000 E0.49291
G1 X221.242 Y101.247 E0.50672
G1 X221.287 Y101.076 E0.50993
G1 X221.582 Y100.377 E0.52374
G1 X222.095 Y99.706 E0.53912
G1 X222.714 Y99.224 E0.55338
G1 X222.848 Y99.148 E0.55619
G1 X223.573 Y98.855 E0.57041
G1 X224.387 Y98.748 E0.58535 F1560.000
G1 X225.166 Y98.844 E0.59963
G1 X225.338 Y98.893 E0.60288
G1 X226.034 Y99.188 E0.61665
G1 X226.704 Y99.705 E0.63204
G1 X227.218 Y100.377 E0.64743
G1 X227.513 Y101.076 E0.66124
G1 X227.558 Y101.249 E0.66448
G1 X227.652 Y102.000 E0.67826
G1 X227.558 Y102.753 E0.69207
G1 X227.513 Y102.924 E0.69529
G1 X227.218 Y103.623 E0.70909
G1 X226.705 Y104.294 E0.72447
G1 X226.086 Y104.776 E0.73873
G1 X225.952 Y104.852 E0.74154
G1 X225.227 Y105.145 E0.75577
G1 X224.465 Y105.245 E0.76975
G1 X224.227 Y105.548 F12000.000
G1 X224.421 Y106.142 F12000.000
G1 X224.186 Y106.144 E0.77401 F1560.000
G1 X223.600 Y106.070 E0.78476
G1 X223.139 Y105.953 E0.79341
G1 X222.669 Y105.771 E0.80260
G1 X222.224 Y105.533 E0.81178
G1 X221.835 Y105.259 E0.82043
G1 X221.378 Y104.842 E0.83170
G1 X221.072 Y104.478 E0.84034
G1 X220.811 Y104.081 E0.84898
G1 X220.542 Y103.523 E0.86025
G1 X220.392 Y103.073 E0.86889
G1 X220.291 Y102.579 E0.87807
G1 X220.251 Y102.036 E0.88797
G1 X220.270 Y101.633 E0.89532
G1 X220.385 Y100.956 E0.90781
G1 X220.521 Y100.527 E0.91600
G1 X220.725 Y100.074 E0.92505
G1 X221.065 Y99.533 E0.93666
G1 X221.352 Y99.184 E0.94488
G1 X221.711 Y98.840 E0.95392
G1 X222.229 Y98.467 E0.96554
G1 X222.625 Y98.250 E0.97376
G1 X223.086 Y98.064 E0.98282
G1 X223.661 Y97.918 E0.99359
G1 X224.109 Y97.861 E1.00182
G1 X224.604 Y97.856 E1.01083
G1 X225.239 Y97.938 E1.02249
G1 X225.676 Y98.052 E1.03070 F1560.000
G1 X226.142 Y98.234 E1.03979
G1 X226.581 Y98.470 E1.04887
G1 X226.950 Y98.731 E1.05709
G1 X227.424 Y99.159 E1.06871
G1 X227.742 Y99.541 E1.07775
G1 X227.988 Y99.919 E1.08597
G1 X228.266 Y100.494 E1.09758
G1 X228.419 Y100.967 E1.10663
G1 X228.506 Y101.410 E1.11485
G1 X228.549 Y102.029 E1.12614
G1 X228.515 Y102.532 E1.13530
G1 X228.427 Y102.999 E1.14394
G1 X228.244 Y103.560 E1.15470
G1 X228.041 Y103.990 E1.16334
G1 X227.756 Y104.441 E1.17304
G1 X227.435 Y104.830 E1.18223
G1 X227.091 Y105.157 E1.19086
G1 X226.590 Y105.522 E1.20214
G1 X226.174 Y105.751 E1.21078
G1 X225.706 Y105.938 E1.21995
G1 X225.162 Y106.078 E1.23018
G1 X224.690 Y106.139 E1.23883
G1 X224.473 Y106.141 E1.24277
G1 X224.302 Y105.940 F12000.000
G1 X224.418 Y105.697 F12000.000
G1 X224.213 Y105.687 E1.25073 F1170.000
G1 X223.562 Y105.599 E1.27619
G1 X223.277 Y105.521 E1.28764
G1 X222.861 Y105.352 E1.30507
G1 X222.461 Y105.147 E1.32249
G1 X222.124 Y104.899 E1.33871
G1 X221.760 Y104.588 E1.35728
G1 X221.443 Y104.202 E1.37665
G1 X221.201 Y103.860 E1.39288
G1 X220.968 Y103.350 E1.41463
G1 X220.858 Y103.053 E1.42692
G1 X220.798 Y102.822 E1.43619
G1 X220.748 Y102.515 E1.44822
G1 X220.701 Y101.972 E1.46937
G1 X220.726 Y101.682 E1.48066 F1170.000
G1 X220.824 Y101.063 E1.50498
G1 X220.951 Y100.691 E1.52018
G1 X221.213 Y100.130 E1.54419
G1 X221.440 Y99.803 E1.55963
G1 X221.799 Y99.372 E1.58140
G1 X222.005 Y99.194 E1.59195
G1 X222.469 Y98.847 E1.61440
G1 X222.821 Y98.664 E1.62979
G1 X223.433 Y98.433 E1.65516
G1 X223.747 Y98.370 E1.66756
G1 X224.140 Y98.318 E1.68296
G1 X224.577 Y98.312 E1.69988
G1 X225.153 Y98.385 E1.72240
