;FLAVOR:RepRap
;TIME:2941
M203 X150 Y150 Z7
G28
G1 Y10 X10 Z0 F15000
G92 E0
;Generated with Cura_SteamEngine 1.99.0-dev.20151117
;LAYER_COUNT:56
;LAYER:0
M107
G0 F9000.000000 X121.367 Y115.479 Z0.300
G0 X123.297 Y113.575
;TYPE:SKIRT
G1 F1200.000 X123.980 Y112.972 E0.01933
G1 X124.740 Y112.341 E0.04030
G1 X125.432 Y111.798 E0.05896
G1 X126.122 Y111.289 E0.07716
G1 X126.988 Y110.685 E0.09956
G1 X127.660 Y110.246 E0.11660
G1 X128.453 Y109.756 E0.13638
G1 X129.332 Y109.251 E0.15789
G1 X130.088 Y108.847 E0.17608
G1 X131.003 Y108.389 E0.19779
G1 X131.492 Y108.158 E0.20927
G1 X131.751 Y108.049 E0.21523
G1 X131.748 Y108.042 E0.21539
G1 X132.288 Y107.804 E0.22792
G1 X132.290 Y107.809 E0.22803
G1 X132.607 Y107.669 E0.23538
G1 X133.522 Y107.305 E0.25628
G1 X134.348 Y107.003 E0.27494
G1 X134.868 Y106.827 E0.28659
G1 X135.138 Y106.748 E0.29256
G1 X135.136 Y106.741 E0.29272
G1 X135.958 Y106.492 E0.31094
G1 X137.102 Y106.178 E0.33612
G1 X137.974 Y105.969 E0.35515
G1 X138.857 Y105.784 E0.37429
G1 X139.630 Y105.645 E0.39096
G1 X140.473 Y105.515 E0.40906
G1 X141.299 Y105.413 E0.42672
G1 X142.039 Y105.341 E0.44250
G1 X143.370 Y105.242 E0.47082
G1 X144.256 Y105.209 E0.48964
G1 X145.187 Y105.200 E0.50939
G1 X146.092 Y105.219 E0.52860
G1 X146.997 Y105.266 E0.54783
G1 X147.930 Y105.338 E0.56769
G1 X148.168 Y105.367 E0.57278
G1 X148.169 Y105.360 E0.57293
G1 X149.006 Y105.448 E0.59079
G1 X149.863 Y105.563 E0.60914
G1 X150.619 Y105.688 E0.62540
G1 X151.527 Y105.861 E0.64501
G1 X152.428 Y106.061 E0.66460
G1 X153.213 Y106.260 E0.68178
G1 X154.309 Y106.568 E0.70594
G1 X155.175 Y106.842 E0.72522
G1 X155.983 Y107.123 E0.74337
G1 X156.966 Y107.497 E0.76569
G1 X157.731 Y107.814 E0.78326
G1 X158.240 Y108.038 E0.79506
G1 X158.235 Y108.048 E0.79530
G1 X158.504 Y108.157 E0.80146
G1 X159.445 Y108.608 E0.82360
G1 X160.225 Y109.012 E0.84224
G1 X161.117 Y109.508 E0.86390
G1 X161.824 Y109.925 E0.88132
G1 X162.632 Y110.433 E0.90157
G1 X163.426 Y110.968 E0.92189
G1 X164.168 Y111.498 E0.94124
G1 X164.817 Y111.992 E0.95855
G1 X165.679 Y112.684 E0.98201
G1 X166.090 Y113.033 E0.99345
G1 X166.250 Y113.181 E0.99807
G1 X166.254 Y113.176 E0.99821
G1 X166.972 Y113.821 E1.01869
G1 X167.673 Y114.491 E1.03927
G1 X168.084 Y114.903 E1.05162
G1 X168.296 Y115.135 E1.05829
G1 X168.302 Y115.129 E1.05847
G1 X168.683 Y115.534 E1.07027
G1 X168.678 Y115.538 E1.07040
G1 X168.898 Y115.767 E1.07714
G1 X169.569 Y116.530 E1.09870
G1 X170.132 Y117.207 E1.11739
G1 X170.722 Y117.960 E1.13769
G1 X171.273 Y118.705 E1.15735
G1 X171.755 Y119.402 E1.17533
G1 X172.332 Y120.286 E1.19773
G1 X172.735 Y120.943 E1.21409
G1 X173.227 Y121.792 E1.23491
G1 X173.678 Y122.635 E1.25520
G1 X173.945 Y123.161 E1.26772
G1 X173.936 Y123.166 E1.26794
G1 X174.088 Y123.453 E1.27483
G1 X174.436 Y124.201 E1.29234
G1 X174.848 Y125.152 E1.31433
G1 X175.155 Y125.919 E1.33186
G1 X175.478 Y126.796 E1.35169
G1 X175.762 Y127.653 E1.37085
G1 X176.099 Y128.778 E1.39577
G1 X176.318 Y129.586 E1.41354
G1 X176.534 Y130.488 E1.43322
G1 X176.714 Y131.350 E1.45191
G1 X176.855 Y132.126 E1.46864
G1 X176.938 Y132.643 E1.47976
G1 X176.977 Y132.977 E1.48689
G1 X176.985 Y132.976 E1.48706
G1 X177.053 Y133.505 E1.49838
G1 X177.045 Y133.506 E1.49855
G1 X177.088 Y133.796 E1.50477
G1 X177.164 Y134.589 E1.52168
G1 X177.273 Y136.118 E1.55421
G1 X177.303 Y136.878 E1.57035
G1 X177.310 Y137.661 E1.58696
G1 X177.294 Y138.415 E1.60297
G1 X177.255 Y139.197 E1.61958
G1 X177.140 Y140.699 E1.65155
G1 X177.086 Y141.224 E1.66275
G1 X177.046 Y141.494 E1.66854
G1 X177.053 Y141.495 E1.66869
G1 X176.985 Y142.024 E1.68001
G1 X176.976 Y142.023 E1.68020
G1 X176.937 Y142.363 E1.68746
G1 X176.812 Y143.121 E1.70377
G1 X176.643 Y144.007 E1.72291
G1 X176.439 Y144.930 E1.74297
G1 X176.229 Y145.749 E1.76091
G1 X175.904 Y146.890 E1.78608
G1 X175.650 Y147.694 E1.80398
G1 X175.350 Y148.561 E1.82345
G1 X175.040 Y149.372 E1.84187
G1 X174.756 Y150.064 E1.85774
G1 X174.749 Y150.061 E1.85791
G1 X174.643 Y150.332 E1.86408
G1 X174.424 Y150.827 E1.87557
G1 X174.314 Y151.048 E1.88081
G1 X174.321 Y151.051 E1.88097
G1 X173.911 Y151.909 E1.90115
G1 X173.470 Y152.762 E1.92152
G1 X173.019 Y153.577 E1.94129
G1 X172.743 Y154.046 E1.95284
G1 X172.597 Y154.271 E1.95853
G1 X172.603 Y154.275 E1.95868
G1 X172.029 Y155.187 E1.98155
G1 X171.590 Y155.840 E1.99825
G1 X171.038 Y156.619 E2.01851
G1 X170.448 Y157.396 E2.03921
G1 X169.898 Y158.078 E2.05780
G1 X169.222 Y158.870 E2.07990
G1 X168.683 Y159.467 E2.09697
G1 X168.026 Y160.156 E2.11717
G1 X167.341 Y160.830 E2.13756
G1 X166.668 Y161.457 E2.15708
G1 X166.392 Y161.699 E2.16487
G1 X166.972 Y162.220 E2.18142
G1 X167.673 Y162.890 E2.20199
G1 X168.084 Y163.302 E2.21434
G1 X168.296 Y163.534 E2.22101
G1 X168.302 Y163.528 E2.22119
G1 X168.683 Y163.933 E2.23299
G1 X168.678 Y163.937 E2.23313
G1 X168.898 Y164.166 E2.23987
G1 X169.569 Y164.929 E2.26143
G1 X170.132 Y165.606 E2.28011
G1 X170.722 Y166.359 E2.30041
G1 X171.273 Y167.104 E2.32008
G1 X171.755 Y167.801 E2.33806
G1 X172.332 Y168.685 E2.36046
G1 X172.735 Y169.342 E2.37682
G1 X173.227 Y170.191 E2.39764
G1 X173.678 Y171.034 E2.41793
G1 X173.945 Y171.560 E2.43045
G1 X173.936 Y171.565 E2.43066
G1 X174.088 Y171.852 E2.43756
G1 X174.436 Y172.600 E2.45506
G1 X174.848 Y173.551 E2.47706
G1 X175.155 Y174.318 E2.49459
G1 X175.478 Y175.195 E2.51442
G1 X175.762 Y176.052 E2.53358
G1 X176.099 Y177.177 E2.55850
G1 X176.318 Y177.985 E2.57627
G1 X176.534 Y178.887 E2.59595
G1 X176.714 Y179.749 E2.61463
G1 X176.855 Y180.525 E2.63137
G1 X176.938 Y181.042 E2.64248
G1 X176.977 Y181.376 E2.64962
G1 X176.985 Y181.375 E2.64979
G1 X177.053 Y181.904 E2.66111
G1 X177.045 Y181.905 E2.66128
G1 X177.088 Y182.195 E2.66750
G1 X177.164 Y182.988 E2.68441
G1 X177.273 Y184.517 E2.71693
G1 X177.303 Y185.277 E2.73307
G1 X177.310 Y186.061 E2.74971
G1 X177.294 Y186.815 E2.76572
G1 X177.255 Y187.597 E2.78233
G1 X177.140 Y189.099 E2.81430
G1 X177.086 Y189.624 E2.82550
G1 X177.046 Y189.894 E2.83129
G1 X177.053 Y189.895 E2.83144
G1 X176.985 Y190.424 E2.84276
G1 X176.976 Y190.423 E2.84295
G1 X176.937 Y190.763 E2.85021
G1 X176.812 Y191.521 E2.86652
G1 X176.643 Y192.407 E2.88566
G1 X176.439 Y193.330 E2.90571
G1 X176.229 Y194.149 E2.92366
G1 X175.904 Y195.290 E2.94883
G1 X175.650 Y196.094 E2.96673
G1 X175.350 Y196.961 E2.98619
G1 X175.040 Y197.772 E3.00462
G1 X174.756 Y198.464 E3.02049
G1 X174.749 Y198.461 E3.02065
G1 X174.643 Y198.732 E3.02683
G1 X174.424 Y199.227 E3.03831
G1 X174.314 Y199.448 E3.04355
G1 X174.321 Y199.451 E3.04371
G1 X173.911 Y200.309 E3.06389
G1 X173.470 Y201.162 E3.08427
G1 X173.019 Y201.977 E3.10404
G1 X172.743 Y202.446 E3.11559
G1 X172.597 Y202.671 E3.12128
G1 X172.603 Y202.675 E3.12143
G1 X172.029 Y203.587 E3.14430
G1 X171.590 Y204.240 E3.16100
G1 X171.038 Y205.019 E3.18126
G1 X170.448 Y205.796 E3.20196
G1 X169.898 Y206.478 E3.22055
G1 X169.222 Y207.270 E3.24265
G1 X168.683 Y207.867 E3.25972
G1 X168.026 Y208.556 E3.27992
G1 X167.341 Y209.230 E3.30031
G1 X166.668 Y209.857 E3.31983
G1 X166.055 Y210.395 E3.33714
G1 X165.220 Y211.089 E3.36018
G1 X164.610 Y211.567 E3.37662
G1 X163.849 Y212.133 E3.39675
G1 X163.039 Y212.697 E3.41769
G1 X162.297 Y213.182 E3.43651
G1 X161.576 Y213.624 E3.45445
G1 X160.652 Y214.157 E3.47709
G1 X159.867 Y214.576 E3.49597
G1 X158.991 Y215.013 E3.51674
G1 X158.502 Y215.244 E3.52822
G1 X158.237 Y215.356 E3.53433
G1 X158.240 Y215.362 E3.53447
G1 X157.731 Y215.586 E3.54627
G1 X157.729 Y215.582 E3.54636
G1 X157.419 Y215.719 E3.55356
G1 X156.450 Y216.104 E3.57568
G1 X155.693 Y216.381 E3.59279
G1 X154.816 Y216.676 E3.61242
G1 X153.994 Y216.924 E3.63064
G1 X152.899 Y217.222 E3.65473
G1 X151.985 Y217.440 E3.67467
G1 X151.158 Y217.612 E3.69259
G1 X150.370 Y217.756 E3.70959
G1 X149.861 Y217.838 E3.72053
G1 X149.503 Y217.880 E3.72818
G1 X149.504 Y217.888 E3.72835
G1 X148.976 Y217.955 E3.73964
G1 X148.975 Y217.948 E3.73979
G1 X148.703 Y217.988 E3.74563
G1 X147.941 Y218.062 E3.76188
G1 X146.640 Y218.157 E3.78956
G1 X145.724 Y218.192 E3.80901
G1 X144.837 Y218.200 E3.82783
G1 X143.898 Y218.181 E3.84776
G1 X142.996 Y218.134 E3.86693
G1 X141.814 Y218.040 E3.89209
G1 X141.300 Y217.988 E3.90305
G1 X141.030 Y217.949 E3.90884
G1 X141.029 Y217.956 E3.90899
G1 X140.501 Y217.889 E3.92029
G1 X140.502 Y217.880 E3.92048
G1 X140.138 Y217.838 E3.92826
G1 X139.394 Y217.715 E3.94426
G1 X138.481 Y217.541 E3.96398
G1 X137.582 Y217.341 E3.98353
G1 X136.806 Y217.144 E4.00051
G1 X135.647 Y216.818 E4.02606
G1 X134.877 Y216.575 E4.04320
G1 X133.986 Y216.268 E4.06320
G1 X133.069 Y215.918 E4.08403
G1 X132.238 Y215.575 E4.10310
G1 X131.475 Y215.233 E4.12085
G1 X130.523 Y214.775 E4.14326
G1 X129.763 Y214.382 E4.16142
G1 X128.906 Y213.907 E4.18221
G1 X128.131 Y213.448 E4.20133
G1 X127.675 Y213.163 E4.21274
G1 X127.410 Y212.981 E4.21956
G1 X127.406 Y212.988 E4.21973
G1 X126.784 Y212.573 E4.23560
G1 X126.791 Y212.563 E4.23586
G1 X126.541 Y212.407 E4.24211
G1 X125.864 Y211.924 E4.25976
G1 X125.144 Y211.379 E4.27892
G1 X124.355 Y210.745 E4.30040
G1 X123.686 Y210.173 E4.31908
G1 X123.061 Y209.607 E4.33697
G1 X122.298 Y208.878 E4.35937
G1 X121.736 Y208.309 E4.37634
G1 X121.091 Y207.622 E4.39633
G1 X120.439 Y206.881 E4.41728
G1 X119.877 Y206.203 E4.43597
G1 X119.243 Y205.392 E4.45781
G1 X118.760 Y204.738 E4.47506
G1 X118.223 Y203.969 E4.49497
G1 X117.690 Y203.151 E4.51569
G1 X117.233 Y202.407 E4.53422
G1 X116.795 Y201.644 E4.55288
G1 X116.300 Y200.722 E4.57509
G1 X115.935 Y199.994 E4.59237
G1 X115.540 Y199.150 E4.61215
G1 X115.159 Y198.267 E4.63256
G1 X114.823 Y197.425 E4.65179
G1 X114.536 Y196.640 E4.66953
G1 X114.158 Y195.498 E4.69506
G1 X113.900 Y194.615 E4.71458
G1 X113.679 Y193.801 E4.73248
G1 X113.459 Y192.884 E4.75249
G1 X113.284 Y192.039 E4.77080
G1 X113.144 Y191.268 E4.78743
G1 X113.062 Y190.759 E4.79837
G1 X113.022 Y190.421 E4.80559
G1 X113.014 Y190.422 E4.80576
G1 X112.911 Y189.587 E4.82362
G1 X112.840 Y188.852 E4.83929
G1 X112.742 Y187.532 E4.86738
G1 X112.708 Y186.612 E4.88691
G1 X112.700 Y185.722 E4.90580
G1 X112.719 Y184.810 E4.92516
G1 X112.764 Y183.926 E4.94394
G1 X112.834 Y182.995 E4.96375
G1 X112.865 Y182.712 E4.96979
G1 X112.860 Y182.712 E4.96990
G1 X112.912 Y182.198 E4.98086
G1 X112.954 Y181.908 E4.98708
G1 X112.946 Y181.907 E4.98725
G1 X113.014 Y181.379 E4.99855
G1 X113.022 Y181.380 E4.99872
G1 X113.059 Y181.059 E5.00558
G1 X113.189 Y180.267 E5.02261
G1 X113.354 Y179.406 E5.04121
G1 X113.559 Y178.479 E5.06136
G1 X113.743 Y177.750 E5.07731
G1 X114.055 Y176.633 E5.10192
G1 X114.367 Y175.652 E5.12377
G1 X114.631 Y174.892 E5.14084
G1 X114.971 Y173.991 E5.16128
G1 X115.231 Y173.359 E5.17578
G1 X115.334 Y173.137 E5.18097
G1 X115.328 Y173.134 E5.18112
G1 X115.704 Y172.289 E5.20074
G1 X116.075 Y171.522 E5.21882
G1 X116.543 Y170.615 E5.24048
G1 X116.951 Y169.877 E5.25838
G1 X117.423 Y169.077 E5.27809
G1 X117.948 Y168.246 E5.29895
G1 X118.447 Y167.505 E5.31790
G1 X118.446 Y167.504 E5.31793
G1 X118.936 Y166.819 E5.33581
G1 X119.570 Y165.981 E5.35811
G1 X120.116 Y165.303 E5.37658
G1 X120.744 Y164.567 E5.39711
G1 X121.367 Y163.878 E5.41682
G1 X121.947 Y163.274 E5.43459
G1 X122.685 Y162.546 E5.45659
G1 X123.090 Y162.165 E5.46839
G1 X123.094 Y162.169 E5.46851
G1 X123.297 Y161.974 E5.47448
G1 X123.606 Y161.701 E5.48323
G1 X123.061 Y161.207 E5.49884
G1 X122.298 Y160.478 E5.52123
G1 X121.736 Y159.909 E5.53821
G1 X121.091 Y159.222 E5.55820
G1 X120.439 Y158.481 E5.57915
G1 X119.877 Y157.803 E5.59784
G1 X119.243 Y156.992 E5.61968
G1 X118.760 Y156.338 E5.63693
G1 X118.223 Y155.569 E5.65684
G1 X117.690 Y154.751 E5.67756
G1 X117.233 Y154.007 E5.69608
G1 X116.795 Y153.244 E5.71475
G1 X116.300 Y152.322 E5.73696
G1 X115.935 Y151.594 E5.75424
G1 X115.540 Y150.750 E5.77402
G1 X115.159 Y149.867 E5.79442
G1 X114.823 Y149.025 E5.81366
G1 X114.536 Y148.240 E5.83140
G1 X114.158 Y147.098 E5.85693
G1 X113.900 Y146.215 E5.87645
G1 X113.679 Y145.401 E5.89435
G1 X113.459 Y144.484 E5.91436
G1 X113.284 Y143.639 E5.93267
G1 X113.144 Y142.868 E5.94930
G1 X113.062 Y142.359 E5.96024
G1 X113.022 Y142.021 E5.96746
G1 X113.014 Y142.022 E5.96763
G1 X112.911 Y141.187 E5.98549
G1 X112.840 Y140.452 E6.00116
G1 X112.742 Y139.132 E6.02924
G1 X112.708 Y138.212 E6.04878
G1 X112.700 Y137.322 E6.06767
G1 X112.719 Y136.411 E6.08700
G1 X112.764 Y135.527 E6.10579
G1 X112.834 Y134.596 E6.12560
G1 X112.865 Y134.313 E6.13164
G1 X112.860 Y134.313 E6.13175
G1 X112.912 Y133.799 E6.14271
G1 X112.954 Y133.509 E6.14893
G1 X112.946 Y133.508 E6.14910
G1 X113.014 Y132.980 E6.16040
G1 X113.022 Y132.981 E6.16057
G1 X113.059 Y132.660 E6.16742
G1 X113.189 Y131.868 E6.18446
G1 X113.354 Y131.007 E6.20306
G1 X113.559 Y130.080 E6.22321
G1 X113.743 Y129.351 E6.23916
G1 X114.055 Y128.234 E6.26377
G1 X114.367 Y127.253 E6.28562
G1 X114.631 Y126.493 E6.30269
G1 X114.971 Y125.592 E6.32313
G1 X115.231 Y124.960 E6.33763
G1 X115.334 Y124.738 E6.34282
G1 X115.328 Y124.735 E6.34296
G1 X115.704 Y123.890 E6.36259
G1 X116.075 Y123.123 E6.38067
G1 X116.543 Y122.216 E6.40233
G1 X116.951 Y121.478 E6.42022
G1 X117.423 Y120.678 E6.43993
G1 X117.948 Y119.847 E6.46079
G1 X118.447 Y119.106 E6.47975
G1 X118.446 Y119.105 E6.47978
G1 X118.936 Y118.420 E6.49765
G1 X119.570 Y117.582 E6.51995
G1 X120.116 Y116.904 E6.53843
G1 X120.744 Y116.168 E6.55896
G1 X121.367 Y115.479 E6.57867
G1 X121.947 Y114.875 E6.59644
G1 X122.685 Y114.147 E6.61844
G1 X122.989 Y113.861 E6.62729
G0 F1080.00000 X123.090 Y113.766
G0 X123.094 Y113.770
G0 X123.297 Y113.575
G0 F9000.000 X125.051 Y112.733
G1 F60.000 E6.63633
G1 F1200.00000 X125.731 Y112.199 E6.65468
G1 X126.409 Y111.698 E6.67257
G1 X127.264 Y111.103 E6.69468
G1 X127.925 Y110.670 E6.71144
G1 X128.704 Y110.189 E6.73087
G1 X129.570 Y109.691 E6.75207
G1 X130.313 Y109.294 E6.76995
G1 X131.217 Y108.841 E6.79141
G1 X131.706 Y108.610 E6.80288
G1 X131.953 Y108.507 E6.80856
G1 X131.950 Y108.500 E6.80872
G1 X132.490 Y108.262 E6.82125
G1 X132.496 Y108.275 E6.82155
G1 X132.794 Y108.132 E6.82856
G1 X133.695 Y107.774 E6.84914
G1 X134.508 Y107.477 E6.86750
G1 X135.028 Y107.301 E6.87915
G1 X135.286 Y107.226 E6.88486
G1 X135.284 Y107.219 E6.88501
G1 X136.092 Y106.973 E6.90293
G1 X137.221 Y106.664 E6.92777
G1 X138.079 Y106.458 E6.94650
G1 X138.948 Y106.276 E6.96534
G1 X139.709 Y106.138 E6.98175
G1 X140.537 Y106.011 E6.99953
G1 X141.349 Y105.910 E7.01689
G1 X142.079 Y105.840 E7.03245
G1 X143.391 Y105.742 E7.06037
G1 X144.263 Y105.709 E7.07889
G1 X145.179 Y105.700 E7.09833
G1 X146.069 Y105.719 E7.11722
G1 X146.959 Y105.764 E7.13613
G1 X147.892 Y105.836 E7.15599
G1 X148.118 Y105.864 E7.16082
G1 X148.119 Y105.857 E7.16097
G1 X148.942 Y105.944 E7.17853
G1 X149.783 Y106.057 E7.19654
G1 X150.528 Y106.180 E7.21256
G1 X151.422 Y106.349 E7.23187
G1 X152.307 Y106.546 E7.25111
G1 X153.080 Y106.742 E7.26803
G1 X154.161 Y107.046 E7.29186
G1 X155.013 Y107.315 E7.31082
G1 X155.807 Y107.591 E7.32866
G1 X156.777 Y107.959 E7.35068
G1 X157.530 Y108.271 E7.36797
G1 X158.039 Y108.495 E7.37977
G1 X158.037 Y108.500 E7.37989
G1 X158.290 Y108.609 E7.38573
G1 X159.217 Y109.053 E7.40754
G1 X159.984 Y109.450 E7.42587
G1 X160.864 Y109.939 E7.44724
G1 X161.561 Y110.350 E7.46441
G1 X162.355 Y110.849 E7.48431
G1 X163.138 Y111.377 E7.50435
G1 X163.867 Y111.898 E7.52336
G1 X164.506 Y112.384 E7.54040
G1 X165.356 Y113.065 E7.56351
G1 X165.767 Y113.414 E7.57495
G1 X165.919 Y113.555 E7.57935
G1 X165.922 Y113.551 E7.57946
G1 X166.628 Y114.184 E7.59958
G1 X167.319 Y114.844 E7.61986
G1 X167.730 Y115.256 E7.63221
G1 X167.932 Y115.478 E7.63858
G1 X167.938 Y115.472 E7.63876
G1 X168.319 Y115.877 E7.65056
G1 X168.309 Y115.887 E7.65086
G1 X168.523 Y116.099 E7.65725
G1 X169.186 Y116.852 E7.67854
G1 X169.739 Y117.517 E7.69689
G1 X170.321 Y118.259 E7.71690
G1 X170.863 Y118.992 E7.73625
G1 X171.337 Y119.677 E7.75393
G1 X171.906 Y120.549 E7.77602
G1 X172.304 Y121.197 E7.79216
G1 X172.787 Y122.030 E7.81259
G1 X173.232 Y122.862 E7.83261
G1 X173.499 Y123.388 E7.84513
G1 X173.495 Y123.390 E7.84523
G1 X173.636 Y123.665 E7.85179
G1 X173.978 Y124.401 E7.86901
G1 X174.385 Y125.340 E7.89073
G1 X174.687 Y126.095 E7.90798
G1 X175.005 Y126.957 E7.92748
G1 X175.283 Y127.797 E7.94625
G1 X175.617 Y128.912 E7.97095
G1 X175.832 Y129.706 E7.98841
